X: 70
T: the Musical Priest
R: reel
Z: 2012 John Chambers <jc@trillian.mit.edu>
B: "100 Essential Irish Session Tunes" 1995 Dave Mallinson, ed.
M: 4/4
L: 1/8
K: Bm
   BA | "Bm"FB~B2 BABd | "A"cBAf ecBA | "Bm"FB~B2 "G"BABd | "A"cBAc "Bm"B2 :|
|: Bc | "D"d2dc dfed | "A"((3cBA) eA fAeA | "G"dcBc defb | "F#m"afec "Bm"B2 :|
|: Bc | "Bm"dB~B2 bafb | "A"afec ABce | "G"dB~B2 bafb | "F#m"afec "Bm"B2 :|

%%sep 2 1 500
%%sep 1 1 500

